src/icons/clipboard.svg

<?xml version="1.0" encoding="UTF-8"?>
<svg width="512px" height="512px" viewBox="0 0 512 512" version="1.1" xmlns="http://www.w3.org/2000/svg" xmlns:xlink="http://www.w3.org/1999/xlink">
    <!-- Generator: Sketch 62 (91390) - https://sketch.com -->
    <title>clipboard</title>
    <desc>Created with Sketch.</desc>
    <g id="clipboard" stroke="none" stroke-width="1" fill="none" fill-rule="evenodd">
        <path d="M183.2,127.4 L328.7,127.4 C327.4,112.2 321.4,100.6 307.5,96.8 C307.2,96.7 306.7,96.5 306.3,96.4 C297.2,93.8 290.4,90.6 290.4,80.6 L290.4,65 C290.4,45.7 274.8,30 255.5,30 C236.2,30 220.6,45.7 220.6,65 L220.6,80.6 C220.6,90.5 214.1,93.6 205,96.2 C204.7,96.3 204.4,96.7 204,96.8 C190.4,100.5 184.7,112.2 183.2,127.4 L183.2,127.4 Z M256,54.5 C261.8,54.5 266.4,59.2 266.4,65 C266.4,70.8 261.7,75.5 256,75.5 C250.3,75.5 245.6,70.8 245.6,65 C245.6,59.3 250.2,54.5 256,54.5 L256,54.5 Z" id="Shape" fill="#000000" fill-rule="nonzero"></path>
        <path d="M369,91.45 L312.8,91.45 L312.8,102.05 C312.8,110.05 319.8,116.45 327.6,116.45 L355.8,116.45 C360.9,116.45 365,120.55 365.2,125.75 L365.3,373.75 C365,378.55 361.3,382.55 356.5,382.85 L156.1,382.85 C151.4,382.55 147.7,378.55 147.4,373.65 L147.3,125.75 C147.6,120.65 151.7,116.45 156.8,116.45 L185.1,116.45 C192.9,116.45 199.1,110.05 199.1,102.05 L199.1,91.45 L143.7,91.45 C132.3,91.45 122.6,101.05 122.6,112.75 L122.6,385.85 C122.6,397.65 132.3,407.55 143.7,407.55 L369,407.55 C380.5,407.55 389.300834,397.65 389.300834,385.85 L389.300834,112.85 C389.4,101.05 380.5,91.45 369,91.45 Z" id="Path" fill="#000000" fill-rule="nonzero"></path>
        <path d="M177.2,164.55 L262.1,164.55 L262.1,188.85 L177.2,188.85 L177.2,164.55 L177.2,164.55 Z M177.2,310.15 L298.5,310.15 L298.5,334.45 L177.2,334.45 L177.2,310.15 Z M177.2,261.65 L275,261.65 L275,285.95 L177.2,285.95 L177.2,261.65 Z M177.2,213.15 L334.9,213.15 L334.9,237.45 L177.2,237.45 L177.2,213.15 Z" id="Shape" fill="#000000" fill-rule="nonzero"></path>
    </g>
</svg>

<svg xmlns="http://www.w3.org/2000/svg" width="512" height="512" viewBox="0 0 512 512">
    <path d="M183.2 127.4h145.5c-1.3-15.2-7.3-26.8-21.2-30.6-.3-.1-.8-.3-1.2-.4-9.1-2.6-15.9-5.8-15.9-15.8V65c0-19.3-15.6-35-34.9-35-19.3 0-34.9 15.7-34.9 35v15.6c0 9.9-6.5 13-15.6 15.6-.3.1-.6.5-1 .6-13.6 3.7-19.3 15.4-20.8 30.6zM256 54.5c5.8 0 10.4 4.7 10.4 10.5s-4.7 10.5-10.4 10.5-10.4-4.7-10.4-10.5c0-5.7 4.6-10.5 10.4-10.5z"/>
    <path d="M369 91.45h-56.2v10.6c0 8 7 14.4 14.8 14.4h28.2c5.1 0 9.2 4.1 9.4 9.3l.1 248c-.3 4.8-4 8.8-8.8 9.1H156.1c-4.7-.3-8.4-4.3-8.7-9.2l-.1-247.9c.3-5.1 4.4-9.3 9.5-9.3h28.3c7.8 0 14-6.4 14-14.4v-10.6h-55.4c-11.4 0-21.1 9.6-21.1 21.3v273.1c0 11.8 9.7 21.7 21.1 21.7H369c11.5 0 20.3-9.9 20.3-21.7v-273c.1-11.8-8.8-21.4-20.3-21.4z"/>
    <path d="M177.2 164.55h84.9v24.3h-84.9v-24.3zm0 145.6h121.3v24.3H177.2v-24.3zm0-48.5H275v24.3h-97.8v-24.3zm0-48.5h157.7v24.3H177.2v-24.3z"/>
</svg>
